X:300
T:Kirrie Kebbuck, The
R:STRATHSPEY
Z:J. Scott Skinner
Z:1997 by John Chambers <jc@trillian.mit.edu>
M:4/4
L:1/8
K:D
|: "D" A<F F>A     "G" B<G G>B    |  "A7" c>Ae>c      "D"  (3dfe (3dcB | A<F F>A    "G"  B<G G>B ||1 "A7" c>Ag>c  "D" d3  B     :|2 "A7" (3Agf (3edc "D"  d3  g ||
"D"    f>ga>f d<a f>d          |  "G"  g>ab>g      "A7"  e<b g>e    |!
"D" f>ga>f "Bm" d<a f>d |"A7" (3Bgf (3edc "D" d3 g      |  "D"  f>ga>f"Bm" (3dag (3fed |!
"Em" g>ab>g "A7" (3eba (3gfe   |"D" (3fed (3edc "Bm" (3dcB A>G |  "A7" F<D E>C     "D"   D4         |]
